flaticon/holiday/firecracker-1.svg

<svg xmlns="http://www.w3.org/2000/svg" width="32" height="32" viewBox="0 0 24 24">
    <path d="M5.746094 21.15625C5.476562 21.429688 5.324219 21.789062 5.324219 22.175781 5.324219 22.558594 5.476562 22.921875 5.746094 23.195312 6.019531 23.464844 6.382812 23.617188 6.765625 23.617188 7.152344 23.617188 7.511719 23.464844 7.785156 23.195312 8.058594 22.921875 8.207031 22.558594 8.207031 22.175781 8.207031 21.789062 8.058594 21.429688 7.785156 21.15625 7.242188 20.613281 6.292969 20.613281 5.746094 21.15625zM7.203125 22.613281C6.96875 22.84375 6.5625 22.84375 6.328125 22.613281 6.214844 22.496094 6.148438 22.339844 6.148438 22.175781 6.148438 22.011719 6.214844 21.855469 6.328125 21.738281 6.445312 21.621094 6.601562 21.558594 6.765625 21.558594 6.933594 21.558594 7.085938 21.621094 7.203125 21.738281 7.320312 21.855469 7.382812 22.011719 7.382812 22.175781 7.382812 22.339844 7.320312 22.496094 7.203125 22.613281zM1.378906 20.28125C.820312 20.84375.820312 21.757812 1.378906 22.320312 1.660156 22.601562 2.03125 22.742188 2.398438 22.742188 2.769531 22.742188 3.136719 22.601562 3.417969 22.320312 3.980469 21.757812 3.980469 20.84375 3.417969 20.28125 2.859375 19.722656 1.945312 19.722656 1.378906 20.28125zM2.835938 21.738281C2.597656 21.980469 2.203125 21.980469 1.964844 21.738281 1.722656 21.496094 1.722656 21.105469 1.964844 20.863281 2.203125 20.625 2.597656 20.625 2.835938 20.863281 3.078125 21.105469 3.078125 21.496094 2.835938 21.738281zM5.347656 19.554688C5.347656 19.894531 5.070312 20.171875 4.730469 20.171875 4.386719 20.171875 4.113281 19.894531 4.113281 19.554688 4.113281 19.214844 4.386719 18.9375 4.730469 18.9375 5.070312 18.9375 5.347656 19.214844 5.347656 19.554688zM8.257812 19.554688C8.257812 19.894531 7.980469 20.171875 7.640625 20.171875 7.300781 20.171875 7.023438 19.894531 7.023438 19.554688 7.023438 19.214844 7.300781 18.9375 7.640625 18.9375 7.980469 18.9375 8.257812 19.214844 8.257812 19.554688zM22.460938 5.101562C22.828125 5.101562 23.199219 4.960938 23.480469 4.679688 23.75 4.410156 23.902344 4.046875 23.902344 3.660156 23.902344 3.277344 23.75 2.914062 23.480469 2.644531 22.917969 2.082031 22.003906 2.082031 21.441406 2.644531 21.171875 2.914062 21.019531 3.277344 21.019531 3.660156 21.019531 4.046875 21.171875 4.40625 21.441406 4.679688 21.722656 4.960938 22.089844 5.101562 22.460938 5.101562zM22.023438 3.226562C22.144531 3.105469 22.300781 3.042969 22.460938 3.042969 22.617188 3.042969 22.777344 3.105469 22.898438 3.226562 23.015625 3.339844 23.078125 3.496094 23.078125 3.660156 23.078125 3.828125 23.015625 3.980469 22.898438 4.097656 22.65625 4.339844 22.265625 4.339844 22.023438 4.097656 21.90625 3.980469 21.84375 3.828125 21.84375 3.660156 21.84375 3.496094 21.90625 3.339844 22.023438 3.226562zM20.570312 9.046875C20.839844 9.320312 21.203125 9.46875 21.585938 9.46875 21.972656 9.46875 22.332031 9.320312 22.605469 9.046875 23.167969 8.484375 23.167969 7.570312 22.605469 7.007812 22.0625 6.464844 21.113281 6.464844 20.570312 7.007812 20.007812 7.570312 20.007812 8.484375 20.570312 9.046875zM21.152344 7.589844C21.265625 7.472656 21.421875 7.410156 21.585938 7.410156 21.753906 7.410156 21.90625 7.472656 22.023438 7.589844 22.265625 7.832031 22.265625 8.222656 22.023438 8.464844 21.792969 8.695312 21.382812 8.695312 21.152344 8.464844 20.910156 8.222656 20.910156 7.832031 21.152344 7.589844zM20.457031 5.699219C20.457031 6.039062 20.183594 6.316406 19.839844 6.316406 19.5 6.316406 19.222656 6.039062 19.222656 5.699219 19.222656 5.359375 19.5 5.082031 19.839844 5.082031 20.183594 5.082031 20.457031 5.359375 20.457031 5.699219zM20.457031 2.789062C20.457031 3.128906 20.183594 3.40625 19.839844 3.40625 19.5 3.40625 19.222656 3.128906 19.222656 2.789062 19.222656 2.445312 19.5 2.171875 19.839844 2.171875 20.183594 2.171875 20.457031 2.445312 20.457031 2.789062zM13.402344 2.46875C13.402344 2.8125 13.128906 3.085938 12.785156 3.085938 12.445312 3.085938 12.167969 2.8125 12.167969 2.46875 12.167969 2.128906 12.445312 1.851562 12.785156 1.851562 13.128906 1.851562 13.402344 2.128906 13.402344 2.46875zM7.226562 2.46875C7.226562 2.8125 6.953125 3.085938 6.609375 3.085938 6.269531 3.085938 5.992188 2.8125 5.992188 2.46875 5.992188 2.128906 6.269531 1.851562 6.609375 1.851562 6.953125 1.851562 7.226562 2.128906 7.226562 2.46875zM3.113281 6.585938C3.113281 6.929688 2.835938 7.203125 2.492188 7.203125 2.152344 7.203125 1.875 6.929688 1.875 6.585938 1.875 6.246094 2.152344 5.96875 2.492188 5.96875 2.835938 5.96875 3.113281 6.246094 3.113281 6.585938zM2.699219 12.351562C2.699219 12.691406 2.421875 12.96875 2.082031 12.96875 1.742188 12.96875 1.464844 12.691406 1.464844 12.351562 1.464844 12.007812 1.742188 11.734375 2.082031 11.734375 2.421875 11.734375 2.699219 12.007812 2.699219 12.351562zM7.226562 16.46875C7.226562 16.808594 6.953125 17.085938 6.609375 17.085938 6.269531 17.085938 5.992188 16.808594 5.992188 16.46875 5.992188 16.125 6.269531 15.851562 6.609375 15.851562 6.953125 15.851562 7.226562 16.125 7.226562 16.46875zM12.992188 16.46875C12.992188 16.808594 12.714844 17.085938 12.375 17.085938 12.035156 17.085938 11.757812 16.808594 11.757812 16.46875 11.757812 16.125 12.035156 15.851562 12.375 15.851562 12.714844 15.851562 12.992188 16.125 12.992188 16.46875zM17.519531 12.761719C17.519531 13.101562 17.242188 13.378906 16.902344 13.378906 16.5625 13.378906 16.285156 13.101562 16.285156 12.761719 16.285156 12.421875 16.5625 12.144531 16.902344 12.144531 17.242188 12.144531 17.519531 12.421875 17.519531 12.761719zM17.519531 6.585938C17.519531 6.929688 17.242188 7.203125 16.902344 7.203125 16.5625 7.203125 16.285156 6.929688 16.285156 6.585938 16.285156 6.246094 16.5625 5.96875 16.902344 5.96875 17.242188 5.96875 17.519531 6.246094 17.519531 6.585938zM17.519531 6.585938"/>
    <path d="M 17.742188 17.277344 C 18.273438 16.632812 18.242188 15.679688 17.640625 15.078125 L 15.566406 13 L 15.046875 11.910156 C 15.027344 11.867188 15.035156 11.828125 15.042969 11.808594 C 15.050781 11.792969 15.070312 11.757812 15.144531 11.730469 L 17.921875 10.484375 C 18.304688 10.347656 18.550781 10 18.550781 9.59375 C 18.550781 9.191406 18.300781 8.839844 17.953125 8.71875 L 15.113281 7.445312 C 15.070312 7.429688 15.050781 7.394531 15.042969 7.378906 C 15.035156 7.359375 15.027344 7.320312 15.046875 7.28125 L 16.660156 3.882812 C 16.835938 3.515625 16.761719 3.097656 16.476562 2.8125 C 16.191406 2.523438 15.769531 2.453125 15.402344 2.625 L 12.007812 4.242188 C 11.964844 4.261719 11.929688 4.25 11.910156 4.242188 C 11.890625 4.234375 11.855469 4.214844 11.839844 4.171875 L 10.582031 0.628906 C 10.445312 0.246094 10.097656 0 9.691406 0 C 9.289062 0 8.9375 0.246094 8.800781 0.628906 L 7.542969 4.171875 C 7.527344 4.214844 7.492188 4.234375 7.476562 4.242188 C 7.457031 4.25 7.417969 4.257812 7.378906 4.238281 L 3.980469 2.625 C 3.617188 2.453125 3.195312 2.523438 2.90625 2.808594 C 2.621094 3.097656 2.550781 3.515625 2.722656 3.882812 L 4.339844 7.277344 C 4.359375 7.320312 4.347656 7.359375 4.339844 7.378906 C 4.332031 7.394531 4.3125 7.429688 4.269531 7.445312 L 0.726562 8.703125 C 0.34375 8.839844 0.0976562 9.1875 0.0976562 9.59375 C 0.0976562 9.996094 0.34375 10.347656 0.726562 10.484375 L 4.269531 11.742188 C 4.3125 11.757812 4.332031 11.792969 4.339844 11.808594 C 4.347656 11.828125 4.359375 11.867188 4.339844 11.90625 L 2.722656 15.304688 C 2.550781 15.671875 2.621094 16.089844 2.90625 16.378906 C 3.195312 16.664062 3.613281 16.734375 3.980469 16.5625 L 7.378906 14.949219 C 7.417969 14.925781 7.457031 14.9375 7.476562 14.945312 C 7.492188 14.953125 7.527344 14.972656 7.554688 15.042969 L 8.800781 17.898438 C 8.9375 18.28125 9.289062 18.527344 9.691406 18.527344 C 10.097656 18.527344 10.445312 18.277344 10.570312 17.925781 L 11.839844 15.015625 C 11.855469 14.972656 11.890625 14.953125 11.910156 14.945312 C 11.929688 14.9375 11.964844 14.929688 12.007812 14.949219 L 12.277344 15.078125 L 14.960938 17.757812 C 15.28125 18.078125 15.703125 18.238281 16.125 18.238281 C 16.492188 18.238281 16.859375 18.109375 17.160156 17.863281 L 23.179688 23.878906 C 23.261719 23.960938 23.367188 24 23.472656 24 C 23.578125 24 23.683594 23.960938 23.761719 23.878906 C 23.921875 23.71875 23.921875 23.457031 23.761719 23.296875 Z M 11.078125 14.714844 L 9.804688 17.621094 C 9.78125 17.6875 9.730469 17.703125 9.691406 17.703125 C 9.652344 17.703125 9.601562 17.6875 9.566406 17.59375 L 8.320312 14.738281 C 8.230469 14.488281 8.035156 14.285156 7.789062 14.183594 C 7.675781 14.136719 7.550781 14.113281 7.429688 14.113281 C 7.289062 14.113281 7.152344 14.144531 7.023438 14.203125 L 3.628906 15.820312 C 3.5625 15.847656 3.519531 15.824219 3.492188 15.792969 C 3.464844 15.765625 3.4375 15.722656 3.46875 15.65625 L 5.082031 12.261719 C 5.195312 12.019531 5.203125 11.742188 5.101562 11.496094 C 5 11.25 4.796875 11.054688 4.546875 10.96875 L 1.003906 9.707031 C 0.9375 9.683594 0.921875 9.632812 0.921875 9.59375 C 0.921875 9.554688 0.9375 9.503906 1.003906 9.480469 L 4.546875 8.21875 C 4.796875 8.128906 5 7.9375 5.101562 7.691406 C 5.203125 7.445312 5.195312 7.167969 5.082031 6.925781 L 3.46875 3.527344 C 3.4375 3.464844 3.464844 3.417969 3.492188 3.390625 C 3.519531 3.363281 3.566406 3.335938 3.628906 3.367188 L 7.023438 4.984375 C 7.265625 5.097656 7.542969 5.105469 7.789062 5.003906 C 8.035156 4.902344 8.230469 4.699219 8.320312 4.445312 L 9.578125 0.902344 C 9.601562 0.835938 9.652344 0.824219 9.691406 0.824219 C 9.730469 0.824219 9.78125 0.835938 9.804688 0.902344 L 11.066406 4.445312 C 11.15625 4.699219 11.347656 4.902344 11.59375 5.003906 C 11.839844 5.105469 12.121094 5.097656 12.359375 4.984375 L 15.757812 3.367188 C 15.820312 3.339844 15.867188 3.363281 15.894531 3.390625 C 15.921875 3.417969 15.945312 3.464844 15.917969 3.527344 L 14.300781 6.925781 C 14.1875 7.167969 14.179688 7.445312 14.28125 7.691406 C 14.386719 7.9375 14.585938 8.128906 14.808594 8.207031 L 17.644531 9.480469 C 17.710938 9.503906 17.726562 9.554688 17.726562 9.59375 C 17.726562 9.632812 17.710938 9.683594 17.613281 9.71875 L 14.839844 10.96875 C 14.585938 11.054688 14.382812 11.25 14.28125 11.496094 C 14.257812 11.550781 14.242188 11.609375 14.230469 11.664062 L 10.757812 8.195312 L 8.890625 6.328125 C 8.246094 5.683594 7.203125 5.683594 6.5625 6.328125 L 6.210938 6.679688 C 5.566406 7.320312 5.566406 8.367188 6.210938 9.007812 L 11.457031 14.253906 C 11.277344 14.367188 11.140625 14.53125 11.078125 14.714844 Z M 6.96875 7.085938 C 7.175781 6.875 7.453125 6.773438 7.726562 6.773438 C 8 6.773438 8.277344 6.875 8.484375 7.085938 L 9.59375 8.195312 L 8.078125 9.710938 L 6.96875 8.601562 C 6.550781 8.183594 6.550781 7.503906 6.96875 7.085938 Z M 15.542969 17.175781 L 12.808594 14.445312 L 8.660156 10.292969 L 10.175781 8.777344 L 17.058594 15.660156 C 17.378906 15.980469 17.378906 16.503906 17.058594 16.824219 L 16.707031 17.175781 C 16.386719 17.496094 15.863281 17.496094 15.542969 17.175781 Z M 15.542969 17.175781"/>
</svg>

<svg xmlns="http://www.w3.org/2000/svg" width="32" height="32" viewBox="0 0 24 24">
    <path d="M5.746 21.156a1.443 1.443 0 0 0 1.02 2.461 1.443 1.443 0 0 0 1.02-2.46c-.544-.544-1.493-.544-2.04 0zm1.457 1.457a.64.64 0 0 1-.875 0 .631.631 0 0 1-.18-.437.614.614 0 0 1 .617-.617.614.614 0 0 1 .617.617c0 .164-.062.32-.179.437zm0 0M1.379 20.281a1.45 1.45 0 0 0 0 2.04 1.44 1.44 0 1 0 0-2.04zm1.457 1.457a.618.618 0 1 1-.87-.875.618.618 0 0 1 .87.875zm0 0M5.348 19.555c0 .34-.278.617-.618.617a.616.616 0 1 1 0-1.235c.34 0 .618.278.618.618zm0 0M8.258 19.555c0 .34-.278.617-.617.617a.618.618 0 0 1-.618-.617.618.618 0 0 1 1.234 0zm0 0M22.46 5.102a1.44 1.44 0 1 0 .003-2.882 1.44 1.44 0 0 0-.002 2.882zm-.437-1.875a.616.616 0 0 1 1.055.433.618.618 0 1 1-1.055-.434zm0 0M20.57 9.047c.27.273.633.422 1.016.422a1.443 1.443 0 0 0 1.02-2.46c-.544-.544-1.493-.544-2.036-.001a1.443 1.443 0 0 0 0 2.039zm.582-1.457a.599.599 0 0 1 .434-.18.618.618 0 0 1 .438 1.055c-.231.23-.641.23-.872 0a.618.618 0 0 1 0-.875zm0 0M20.457 5.7a.616.616 0 1 1-1.234 0 .616.616 0 1 1 1.234 0zm0 0M20.457 2.79a.616.616 0 1 1-1.234 0c0-.345.277-.618.617-.618.344 0 .617.273.617.617zm0 0M13.402 2.469a.614.614 0 0 1-.617.617.616.616 0 1 1 0-1.234c.344 0 .617.277.617.617zm0 0M7.227 2.469a.614.614 0 0 1-.618.617.616.616 0 1 1 0-1.234c.344 0 .618.277.618.617zm0 0M3.113 6.586a.617.617 0 0 1-.62.617.616.616 0 1 1 0-1.234.62.62 0 0 1 .62.617zm0 0M2.7 12.352a.618.618 0 0 1-1.234 0 .616.616 0 1 1 1.233 0zm0 0M7.227 16.469a.616.616 0 1 1-1.235 0c0-.344.278-.617.617-.617.344 0 .618.273.618.617zm0 0M12.992 16.469c0 .34-.277.617-.617.617a.616.616 0 1 1 .617-.617zm0 0M17.52 12.762a.618.618 0 0 1-1.234 0c0-.34.276-.617.616-.617.34 0 .618.277.618.617zm0 0M17.52 6.586a.616.616 0 1 1-1.235 0c0-.34.277-.617.617-.617.34 0 .618.277.618.617zm0 0"/>
    <path d="M17.742 17.277c.531-.644.5-1.597-.101-2.199L15.566 13l-.52-1.09a.131.131 0 0 1-.003-.101c.008-.016.027-.051.102-.079l2.777-1.246a.934.934 0 0 0 .629-.89.923.923 0 0 0-.598-.875l-2.84-1.274a.129.129 0 0 1-.07-.066.122.122 0 0 1 .004-.098l1.613-3.398a.927.927 0 0 0-.183-1.07.934.934 0 0 0-1.075-.188l-3.394 1.617a.118.118 0 0 1-.098 0 .121.121 0 0 1-.07-.07L10.582.629A.934.934 0 0 0 9.692 0 .938.938 0 0 0 8.8.629L7.543 4.172a.129.129 0 0 1-.066.07.122.122 0 0 1-.098-.004L3.98 2.625a.942.942 0 0 0-1.257 1.258L4.34 7.277a.127.127 0 0 1 0 .102.129.129 0 0 1-.07.066L.727 8.703a.934.934 0 0 0-.63.89c0 .403.247.755.63.891l3.543 1.258c.043.016.062.051.07.067.008.02.02.058 0 .097l-1.617 3.399a.94.94 0 0 0 .183 1.074.94.94 0 0 0 1.074.183L7.38 14.95a.108.108 0 0 1 .098-.004c.015.008.05.028.078.098L8.8 17.898a.938.938 0 0 0 .89.63c.407 0 .754-.25.88-.602l1.269-2.91a.121.121 0 0 1 .07-.07.122.122 0 0 1 .098.003l.27.13 2.683 2.679a1.638 1.638 0 0 0 2.2.105l6.019 6.016a.41.41 0 1 0 .582-.582zm-6.664-2.562L9.805 17.62a.114.114 0 0 1-.114.082c-.039 0-.09-.015-.125-.11L8.32 14.739a.953.953 0 0 0-.89-.625.977.977 0 0 0-.407.09L3.63 15.82c-.067.028-.11.004-.137-.027-.027-.027-.054-.07-.023-.137l1.613-3.394a.95.95 0 0 0 .02-.766.935.935 0 0 0-.555-.527L1.004 9.707a.114.114 0 0 1-.082-.113c0-.04.015-.09.082-.114L4.547 8.22a.946.946 0 0 0 .535-1.293L3.469 3.527c-.031-.062-.004-.109.023-.136.028-.028.074-.055.137-.024l3.394 1.617a.95.95 0 0 0 1.297-.539L9.578.902c.024-.066.074-.078.113-.078.04 0 .09.012.114.078l1.261 3.543a.942.942 0 0 0 1.293.54l3.399-1.618a.117.117 0 0 1 .137.024c.027.027.05.074.023.136l-1.617 3.399a.95.95 0 0 0-.02.765.934.934 0 0 0 .528.516l2.836 1.273a.114.114 0 0 1 .082.114c0 .039-.016.09-.114.125l-2.773 1.25a.931.931 0 0 0-.61.695l-3.472-3.469L8.89 6.328a1.643 1.643 0 0 0-2.329 0l-.351.352a1.643 1.643 0 0 0 0 2.328l5.246 5.246a.903.903 0 0 0-.379.46zm-4.11-7.63c.208-.21.485-.312.759-.312.273 0 .55.102.757.313l1.11 1.11L8.078 9.71 6.968 8.6a1.073 1.073 0 0 1 0-1.515zm8.575 10.09l-2.734-2.73-4.149-4.152 1.516-1.516 6.883 6.883c.32.32.32.844 0 1.164l-.352.352a.825.825 0 0 1-1.164 0zm0 0"/>
</svg>
